src/amo/components/CategoryIcon/img/causes.svg

<svg xmlns="http://www.w3.org/2000/svg" width="64" height="64" viewBox="0 0 64 64">
  <g class="one" fill="#0F1126">
    <path d="M6.15697391,53.7492271 L5.22232389,40.6641269 L1.91112173,39.0085258 C1.49415677,38.8000433 1.23076923,38.3738733 1.23076923,37.9076923 L1.23076923,30.0307692 C1.23076923,26.0880188 4.42648031,22.8923077 8.36923077,22.8923077 L16.2461538,22.8923077 C19.0301375,22.8923077 21.5275203,24.5078105 22.7015522,26.9814458 C22.9930058,27.5955261 22.7314652,28.3296064 22.1173849,28.6210599 C21.5033046,28.9125135 20.7692244,28.6509729 20.4777708,28.0368926 C19.7071437,26.413214 18.069482,25.3538462 16.2461538,25.3538462 L8.36923077,25.3538462 C5.78595046,25.3538462 3.69230769,27.4474889 3.69230769,30.0307692 L3.69230769,37.1470351 L6.95041673,38.7760896 C7.33924372,38.9705031 7.59666883,39.3556174 7.62764148,39.7892344 L8.53060825,52.4307692 L18.2153846,52.4307692 C18.8951197,52.4307692 19.4461538,52.9818034 19.4461538,53.6615385 C19.4461538,54.3412735 18.8951197,54.8923077 18.2153846,54.8923077 L7.38461538,54.8923077 C6.73890626,54.8923077 6.20297878,54.3932953 6.15697391,53.7492271 Z M12.3076923,19.4461538 C8.36522886,19.4461538 5.16923077,16.2501558 5.16923077,12.3076923 C5.16923077,8.36522886 8.36522886,5.16923077 12.3076923,5.16923077 C16.2501558,5.16923077 19.4461538,8.36522886 19.4461538,12.3076923 C19.4461538,16.2501558 16.2501558,19.4461538 12.3076923,19.4461538 Z M12.3076923,16.9846154 C14.8906856,16.9846154 16.9846154,14.8906856 16.9846154,12.3076923 C16.9846154,9.72469902 14.8906856,7.63076923 12.3076923,7.63076923 C9.72469902,7.63076923 7.63076923,9.72469902 7.63076923,12.3076923 C7.63076923,14.8906856 9.72469902,16.9846154 12.3076923,16.9846154 Z M57.0495833,38.7760896 L60.3076923,37.1470351 L60.3076923,30.0307692 C60.3076923,27.4474889 58.2140495,25.3538462 55.6307692,25.3538462 L47.7538462,25.3538462 C45.930518,25.3538462 44.2928563,26.413214 43.5222292,28.0368926 C43.2307756,28.6509729 42.4966954,28.9125135 41.8826151,28.6210599 C41.2685348,28.3296064 41.0069942,27.5955261 41.2984478,26.9814458 C42.4724797,24.5078105 44.9698625,22.8923077 47.7538462,22.8923077 L55.6307692,22.8923077 C59.5735197,22.8923077 62.7692308,26.0880188 62.7692308,30.0307692 L62.7692308,37.9076923 C62.7692308,38.3738733 62.5058432,38.8000433 62.0888783,39.0085258 L58.7776761,40.6641269 L57.8430261,53.7492271 C57.7970212,54.3932953 57.2610937,54.8923077 56.6153846,54.8923077 L45.7846154,54.8923077 C45.1048803,54.8923077 44.5538462,54.3412735 44.5538462,53.6615385 C44.5538462,52.9818034 45.1048803,52.4307692 45.7846154,52.4307692 L55.4693917,52.4307692 L56.3723585,39.7892344 C56.4033312,39.3556174 56.6607563,38.9705031 57.0495833,38.7760896 Z M51.6923077,19.4461538 C47.7498442,19.4461538 44.5538462,16.2501558 44.5538462,12.3076923 C44.5538462,8.36522886 47.7498442,5.16923077 51.6923077,5.16923077 C55.6347711,5.16923077 58.8307692,8.36522886 58.8307692,12.3076923 C58.8307692,16.2501558 55.6347711,19.4461538 51.6923077,19.4461538 Z M51.6923077,16.9846154 C54.275301,16.9846154 56.3692308,14.8906856 56.3692308,12.3076923 C56.3692308,9.72469902 54.275301,7.63076923 51.6923077,7.63076923 C49.1093144,7.63076923 47.0153846,9.72469902 47.0153846,12.3076923 C47.0153846,14.8906856 49.1093144,16.9846154 51.6923077,16.9846154 Z"/>
  </g>
  <g class="two" fill="#0F1126">
    <path d="M40.3644371,61.6920081 C40.2833548,62.9893248 39.2075404,64 37.9076923,64 L26.0923077,64 C24.7924596,64 23.7166452,62.9893248 23.6355629,61.6920081 L22.7690102,47.8271655 L19.701868,47.213737 C18.5512853,46.9836205 17.7230769,45.9733687 17.7230769,44.8 L17.7230769,32 C17.7230769,26.2904991 22.3520375,21.6615385 28.0615385,21.6615385 L35.9384615,21.6615385 C41.6479625,21.6615385 46.2769231,26.2904991 46.2769231,32 L46.2769231,44.8 C46.2769231,45.9733687 45.4487147,46.9836205 44.298132,47.213737 L41.2309898,47.8271655 L40.3644371,61.6920081 Z M36.4355629,45.6310688 C36.5051722,44.517319 37.3153078,43.5897288 38.4095603,43.3708783 L41.3538462,42.7820212 L41.3538462,32 C41.3538462,29.0094394 38.9290222,26.5846154 35.9384615,26.5846154 L28.0615385,26.5846154 C25.0709778,26.5846154 22.6461538,29.0094394 22.6461538,32 L22.6461538,42.7820212 L25.5904397,43.3708783 C26.6846922,43.5897288 27.4948278,44.517319 27.5644371,45.6310688 L28.404803,59.0769231 L35.595197,59.0769231 L36.4355629,45.6310688 Z M32,20.6769231 C26.2902254,20.6769231 21.6615385,16.0482362 21.6615385,10.3384615 C21.6615385,4.62868689 26.2902254,0 32,0 C37.7097746,0 42.3384615,4.62868689 42.3384615,10.3384615 C42.3384615,16.0482362 37.7097746,20.6769231 32,20.6769231 Z M32,15.7538462 C34.9908343,15.7538462 37.4153846,13.3292959 37.4153846,10.3384615 C37.4153846,7.3476272 34.9908343,4.92307692 32,4.92307692 C29.0091657,4.92307692 26.5846154,7.3476272 26.5846154,10.3384615 C26.5846154,13.3292959 29.0091657,15.7538462 32,15.7538462 Z"/>
  </g>
</svg>

<svg xmlns="http://www.w3.org/2000/svg" width="64" height="64"><path d="m6.157 53.75-.935-13.086-3.31-1.655a1.23 1.23 0 0 1-.681-1.101V30.03a7.138 7.138 0 0 1 7.138-7.139h7.877a7.149 7.149 0 0 1 6.456 4.09 1.23 1.23 0 1 1-2.224 1.055 4.688 4.688 0 0 0-4.232-2.683H8.37a4.677 4.677 0 0 0-4.677 4.677v7.116l3.258 1.63c.39.194.647.579.678 1.012l.903 12.642h9.684a1.23 1.23 0 0 1 0 2.461H7.385a1.23 1.23 0 0 1-1.228-1.143Zm6.15-34.304a7.138 7.138 0 1 1 0-14.277 7.138 7.138 0 0 1 0 14.277Zm0-2.461a4.677 4.677 0 1 0 0-9.354 4.677 4.677 0 0 0 0 9.354ZM57.05 38.776l3.258-1.629v-7.116a4.677 4.677 0 0 0-4.677-4.677h-7.877a4.688 4.688 0 0 0-4.232 2.683 1.23 1.23 0 1 1-2.224-1.056 7.149 7.149 0 0 1 6.456-4.089h7.877a7.138 7.138 0 0 1 7.138 7.139v7.877c0 .466-.263.892-.68 1.1l-3.311 1.656-.935 13.085a1.23 1.23 0 0 1-1.228 1.143h-10.83a1.23 1.23 0 0 1 0-2.461h9.684l.903-12.642a1.23 1.23 0 0 1 .678-1.013Zm-5.358-19.33a7.138 7.138 0 1 1 0-14.277 7.138 7.138 0 0 1 0 14.277Zm0-2.461a4.677 4.677 0 1 0 0-9.354 4.677 4.677 0 0 0 0 9.354Z" class="one" fill="#0F1126"/><path d="M40.364 61.692A2.462 2.462 0 0 1 37.908 64H26.092c-1.3 0-2.375-1.01-2.456-2.308l-.867-13.865-3.067-.613a2.462 2.462 0 0 1-1.979-2.414V32c0-5.71 4.629-10.338 10.339-10.338h7.876c5.71 0 10.339 4.628 10.339 10.338v12.8a2.462 2.462 0 0 1-1.979 2.414l-3.067.613-.867 13.865Zm-3.928-16.06a2.462 2.462 0 0 1 1.974-2.261l2.944-.589V32a5.416 5.416 0 0 0-5.416-5.415h-7.876A5.416 5.416 0 0 0 22.646 32v10.782l2.944.589a2.462 2.462 0 0 1 1.974 2.26l.84 13.446h7.191l.84-13.446ZM32 20.676c-5.71 0-10.338-4.629-10.338-10.339C21.662 4.628 26.29 0 32 0c5.71 0 10.338 4.629 10.338 10.338 0 5.71-4.628 10.339-10.338 10.339Zm0-4.923a5.415 5.415 0 1 0 0-10.83 5.415 5.415 0 0 0 0 10.83Z" class="two" fill="#0F1126"/></svg>
